assets/svgs/security-color/SecurityColor5.svg

<svg xmlns="http://www.w3.org/2000/svg" data-name="Layer 3" viewBox="0 0 128 128"><path fill="#ff5e4c" d="M88.589 58.635V31.81a8.967 8.967 0 00-8.941-8.942h-31.3a8.967 8.967 0 00-8.941 8.942v64.38a8.967 8.967 0 008.941 8.942h31.3a8.967 8.967 0 008.941-8.942z"/><path fill="#fdfdfd" d="M39.411 38.259h49.178v51.673H39.411z"/><path d="M79.648 106.745h-31.3A10.567 10.567 0 0137.8 96.19V31.81a10.567 10.567 0 0110.552-10.555h31.3A10.567 10.567 0 0190.2 31.81v64.38a10.567 10.567 0 01-10.552 10.555zm-31.3-82.264a7.337 7.337 0 00-7.328 7.329v64.38a7.337 7.337 0 007.328 7.329h31.3a7.337 7.337 0 007.328-7.329V31.81a7.337 7.337 0 00-7.328-7.329z"/><path fill="#fdc028" d="M75.474 60.731v15.8a3.773 3.773 0 01-3.762 3.769H56.288a3.773 3.773 0 01-3.765-3.763v-15.8z"/><path d="M71.712 81.909H56.288a5.384 5.384 0 01-5.378-5.376v-15.8a1.612 1.612 0 011.613-1.613h22.951a1.613 1.613 0 011.613 1.613v15.8a5.382 5.382 0 01-5.375 5.376zM54.136 62.344v14.188a2.154 2.154 0 002.152 2.15h15.424a2.152 2.152 0 002.149-2.15V62.344z"/><path d="M70.868 62.344a1.613 1.613 0 01-1.613-1.613v-6.492a5.268 5.268 0 00-10.513 0v6.492a1.613 1.613 0 01-3.226 0v-6.492a8.489 8.489 0 0116.965 0v6.492a1.613 1.613 0 01-1.613 1.613z"/><circle cx="63.999" cy="68.256" r="3.01" fill="#fdfdfd"/><path d="M64 72.878a4.623 4.623 0 114.622-4.622A4.628 4.628 0 0164 72.878zm0-6.02a1.4 1.4 0 101.4 1.4 1.4 1.4 0 00-1.4-1.4z"/><path d="M64 77.018a1.613 1.613 0 01-1.613-1.618v-4.14a1.613 1.613 0 113.226 0v4.14A1.613 1.613 0 0164 77.018zM88.589 91.544H39.411a1.613 1.613 0 110-3.226h49.178a1.613 1.613 0 110 3.226zM88.589 39.872H39.411a1.613 1.613 0 110-3.226h49.178a1.613 1.613 0 110 3.226z"/><circle cx="64" cy="97.531" r="4.471"/></svg>

<svg id="Layer_3" data-name="Layer 3" xmlns="http://www.w3.org/2000/svg" viewBox="0 0 128 128"><title>Artboard 100</title><path d="M88.589,58.635V31.81a8.967,8.967,0,0,0-8.941-8.942h-31.3a8.967,8.967,0,0,0-8.941,8.942V96.19a8.967,8.967,0,0,0,8.941,8.942h31.3a8.967,8.967,0,0,0,8.941-8.942Z" style="fill:#ff5e4c"/><rect x="39.411" y="38.259" width="49.178" height="51.673" style="fill:#fdfdfd"/><path d="M79.648,106.745h-31.3A10.567,10.567,0,0,1,37.8,96.19V31.81A10.567,10.567,0,0,1,48.352,21.255h31.3A10.567,10.567,0,0,1,90.2,31.81V96.19A10.567,10.567,0,0,1,79.648,106.745Zm-31.3-82.264a7.337,7.337,0,0,0-7.328,7.329V96.19a7.337,7.337,0,0,0,7.328,7.329h31.3a7.337,7.337,0,0,0,7.328-7.329V31.81a7.337,7.337,0,0,0-7.328-7.329Z"/><path d="M75.474,60.731v15.8A3.773,3.773,0,0,1,71.712,80.3H56.288a3.773,3.773,0,0,1-3.765-3.763v-15.8Z" style="fill:#fdc028"/><path d="M71.712,81.909H56.288a5.384,5.384,0,0,1-5.378-5.376v-15.8a1.612,1.612,0,0,1,1.613-1.613H75.474a1.613,1.613,0,0,1,1.613,1.613v15.8A5.382,5.382,0,0,1,71.712,81.909ZM54.136,62.344V76.532a2.154,2.154,0,0,0,2.152,2.15H71.712a2.152,2.152,0,0,0,2.149-2.15V62.344Z"/><path d="M70.868,62.344a1.613,1.613,0,0,1-1.613-1.613V54.239a5.268,5.268,0,0,0-10.513,0v6.492a1.613,1.613,0,0,1-3.226,0V54.239a8.489,8.489,0,0,1,16.965,0v6.492A1.613,1.613,0,0,1,70.868,62.344Z"/><circle cx="63.999" cy="68.256" r="3.01" style="fill:#fdfdfd"/><path d="M64,72.878a4.623,4.623,0,1,1,4.622-4.622A4.628,4.628,0,0,1,64,72.878Zm0-6.02a1.4,1.4,0,1,0,1.4,1.4A1.4,1.4,0,0,0,64,66.858Z"/><path d="M64,77.018A1.613,1.613,0,0,1,62.387,75.4v-4.14a1.613,1.613,0,1,1,3.226,0V75.4A1.613,1.613,0,0,1,64,77.018Z"/><path d="M88.589,91.544H39.411a1.613,1.613,0,1,1,0-3.226H88.589a1.613,1.613,0,1,1,0,3.226Z"/><path d="M88.589,39.872H39.411a1.613,1.613,0,1,1,0-3.226H88.589a1.613,1.613,0,1,1,0,3.226Z"/><circle cx="64" cy="97.531" r="4.471"/></svg>
